material/.icons/material/expand-all.svg

<svg xmlns="http://www.w3.org/2000/svg" viewBox="0 0 24 24"><path d="M18 8H8v10H6V8a2 2 0 012-2h10v2m-4-6H4a2 2 0 00-2 2v10h2V4h10V2m8 10v8a2 2 0 01-2 2h-8a2 2 0 01-2-2v-8a2 2 0 012-2h8a2 2 0 012 2m-2 3h-3v-3h-2v3h-3v2h3v3h2v-3h3v-2z"/></svg>

<?xml version="1.0" encoding="UTF-8"?><!DOCTYPE svg PUBLIC "-//W3C//DTD SVG 1.1//EN" "http://www.w3.org/Graphics/SVG/1.1/DTD/svg11.dtd"><svg xmlns="http://www.w3.org/2000/svg" xmlns:xlink="http://www.w3.org/1999/xlink" version="1.1" id="mdi-expand-all" width="24" height="24" viewBox="0 0 24 24"><path d="M18,8H8V18H6V8A2,2 0 0,1 8,6H18V8M14,2H4A2,2 0 0,0 2,4V14H4V4H14V2M22,12V20A2,2 0 0,1 20,22H12A2,2 0 0,1 10,20V12A2,2 0 0,1 12,10H20A2,2 0 0,1 22,12M20,15H17V12H15V15H12V17H15V20H17V17H20V15Z" /></svg>
